symbols/web/event/materialsymbolsrounded/event_wght200gradN25fill1_48px.svg

<svg xmlns="http://www.w3.org/2000/svg" height="48" width="48"><path d="M30.15 36.45q-1.75 0-2.95-1.2-1.2-1.2-1.2-2.95 0-1.75 1.2-2.95 1.2-1.2 2.95-1.2 1.8 0 2.975 1.2T34.3 32.3q0 1.75-1.2 2.95-1.2 1.2-2.95 1.2Zm-19.35 5.5q-1.15 0-1.95-.825t-.8-1.925V12.3q0-1.1.8-1.9.8-.8 1.95-.8h4.15V6.45q0-.35.225-.6t.625-.25q.4 0 .65.275t.25.575V9.6h14.75V6.4q0-.35.225-.575.225-.225.575-.225t.6.25q.25.25.25.55v3.2h4.1q1.15 0 1.95.8t.8 1.9v26.9q0 1.1-.8 1.925t-1.95.825Zm0-1.5h26.4q.55 0 .9-.35t.35-.9V21H9.55v18.2q0 .55.35.9t.9.35Z"/></svg>

<svg xmlns="http://www.w3.org/2000/svg" height="48" width="48"><path d="M30.15 36.45Q28.4 36.45 27.2 35.25Q26 34.05 26 32.3Q26 30.55 27.2 29.35Q28.4 28.15 30.15 28.15Q31.95 28.15 33.125 29.35Q34.3 30.55 34.3 32.3Q34.3 34.05 33.1 35.25Q31.9 36.45 30.15 36.45ZM10.8 41.95Q9.65 41.95 8.85 41.125Q8.05 40.3 8.05 39.2V12.3Q8.05 11.2 8.85 10.4Q9.65 9.6 10.8 9.6H14.95V6.45Q14.95 6.1 15.175 5.85Q15.4 5.6 15.8 5.6Q16.2 5.6 16.45 5.875Q16.7 6.15 16.7 6.45V9.6H31.45V6.4Q31.45 6.05 31.675 5.825Q31.9 5.6 32.25 5.6Q32.6 5.6 32.85 5.85Q33.1 6.1 33.1 6.4V9.6H37.2Q38.35 9.6 39.15 10.4Q39.95 11.2 39.95 12.3V39.2Q39.95 40.3 39.15 41.125Q38.35 41.95 37.2 41.95ZM10.8 40.45H37.2Q37.75 40.45 38.1 40.1Q38.45 39.75 38.45 39.2V21H9.55V39.2Q9.55 39.75 9.9 40.1Q10.25 40.45 10.8 40.45Z"/></svg>
